images/ok-icon.svg

<svg width="41" height="41" viewBox="0 0 41 41" fill="none" xmlns="http://www.w3.org/2000/svg">
<rect width="41" height="41" rx="8" fill="url(#paint0_linear_107_246)"/>
<path fill-rule="evenodd" clip-rule="evenodd" d="M15.7143 16.0655C15.7158 14.7206 16.2515 13.4313 17.2035 12.4814C18.1555 11.5314 19.4459 10.9985 20.7908 11C22.1358 11.0015 23.425 11.5371 24.375 12.4892C25.3249 13.4412 25.8578 14.7316 25.8563 16.0765C25.8556 16.7424 25.7237 17.4017 25.4682 18.0167C25.2127 18.6316 24.8386 19.1903 24.3672 19.6606C23.4152 20.6106 22.1248 21.1435 20.7798 21.142C19.4349 21.1405 18.1457 20.6049 17.1957 19.6529C16.2458 18.7008 15.7129 17.4104 15.7143 16.0655ZM20.7883 18.1635C21.203 18.1619 21.6079 18.0374 21.9518 17.8056C22.2956 17.5738 22.563 17.2453 22.7201 16.8615C22.8772 16.4777 22.9169 16.056 22.8342 15.6497C22.7516 15.2433 22.5502 14.8706 22.2557 14.5787C21.9611 14.2868 21.5866 14.0889 21.1795 14.0099C20.7724 13.9309 20.3511 13.9745 19.9688 14.135C19.5864 14.2956 19.2603 14.5659 19.0317 14.9119C18.803 15.2578 18.6822 15.6638 18.6843 16.0785C18.6896 16.6331 18.9136 17.1633 19.3076 17.5537C19.7015 17.9441 20.2337 18.1633 20.7883 18.1635Z" fill="#FEFEFD"/>
<path fill-rule="evenodd" clip-rule="evenodd" d="M18.9103 25.1945C18.3516 25.0818 17.8038 24.9202 17.2733 24.7115C16.6796 24.4839 16.1169 24.1825 15.5983 23.8145C15.1123 23.4595 14.9083 22.9745 15.0383 22.3845C15.1653 21.7965 15.5433 21.4445 16.1283 21.3255C16.2987 21.2873 16.475 21.2849 16.6463 21.3185C16.8176 21.3521 16.98 21.4209 17.1233 21.5205C18.2833 22.3255 19.5793 22.6475 20.9733 22.6005C22.0873 22.5635 23.1283 22.2675 24.0703 21.6625C24.2783 21.5275 24.4753 21.3845 24.7253 21.3325C25.034 21.2632 25.3571 21.3022 25.6403 21.4431C25.9235 21.584 26.1496 21.818 26.2806 22.106C26.4115 22.3939 26.4393 22.7182 26.3594 23.0242C26.2794 23.3303 26.0964 23.5995 25.8413 23.7865C25.1403 24.3065 24.3573 24.6635 23.5313 24.9315C23.2263 25.0305 22.9163 25.1075 22.6023 25.1775C22.6093 25.2405 22.6593 25.2625 22.6923 25.2945L25.6133 28.1965C26.0433 28.6215 26.1613 29.2065 25.9373 29.7345C25.8528 29.9397 25.7197 30.1212 25.5493 30.2634C25.379 30.4056 25.1766 30.5042 24.9596 30.5507C24.7426 30.5971 24.5176 30.5901 24.3039 30.5301C24.0903 30.4702 23.8945 30.3591 23.7333 30.2065C22.9833 29.5005 22.2563 28.7735 21.5183 28.0565C21.2823 27.8265 21.0423 27.5995 20.8083 27.3645C20.7303 27.2845 20.6903 27.2945 20.6183 27.3725C19.76 28.2917 18.8996 29.209 18.0373 30.1245C17.5813 30.6085 16.8953 30.7175 16.3463 30.4045C16.1615 30.3024 16.0026 30.1591 15.882 29.9857C15.7613 29.8124 15.6823 29.6136 15.6508 29.4047C15.6194 29.1959 15.6365 28.9826 15.7007 28.7814C15.765 28.5802 15.8747 28.3965 16.0213 28.2445C16.4093 27.8305 16.8013 27.4235 17.1963 27.0135L18.7993 25.3365C18.8479 25.2995 18.8862 25.2506 18.9103 25.1945Z" fill="#FEFEFD"/>
<defs>
<linearGradient id="paint0_linear_107_246" x1="0" y1="0" x2="41" y2="41" gradientUnits="userSpaceOnUse">
<stop stop-color="#FBB22E"/>
<stop offset="1" stop-color="#FE8C04"/>
</linearGradient>
</defs>
</svg>

<svg xmlns="http://www.w3.org/2000/svg" width="41" height="41" fill="none"><rect width="41" height="41" fill="url(#a)" rx="8"/><path fill="#FEFEFD" fill-rule="evenodd" d="M15.714 16.066a5.071 5.071 0 1 1 10.143.01 5.071 5.071 0 0 1-10.143-.01Zm5.074 2.098a2.096 2.096 0 1 0-2.104-2.086 2.105 2.105 0 0 0 2.104 2.085Z" clip-rule="evenodd"/><path fill="#FEFEFD" fill-rule="evenodd" d="M18.91 25.195a9.724 9.724 0 0 1-1.637-.483 7.588 7.588 0 0 1-1.675-.898c-.486-.355-.69-.84-.56-1.43.127-.587.505-.94 1.09-1.058a1.26 1.26 0 0 1 .995.194c1.16.806 2.456 1.128 3.85 1.08 1.114-.037 2.155-.333 3.097-.938.208-.134.405-.277.655-.33a1.377 1.377 0 0 1 1.116 2.454c-.7.52-1.484.877-2.31 1.145-.305.1-.615.177-.929.246.007.064.057.085.09.117l2.921 2.902c.43.425.548 1.01.324 1.538a1.366 1.366 0 0 1-2.204.472c-.75-.706-1.477-1.433-2.215-2.15-.236-.23-.476-.457-.71-.692-.078-.08-.118-.07-.19.008-.858.92-1.718 1.837-2.58 2.753-.457.483-1.143.593-1.692.28a1.376 1.376 0 0 1-.325-2.16c.388-.415.78-.822 1.175-1.232l1.603-1.677a.354.354 0 0 0 .111-.141Z" clip-rule="evenodd"/><defs><linearGradient id="a" x1="0" x2="41" y1="0" y2="41" gradientUnits="userSpaceOnUse"><stop stop-color="#FBB22E"/><stop offset="1" stop-color="#FE8C04"/></linearGradient></defs></svg>
